X:1

T:Robin Redbreast

M:C|

L:1/8

R:Reel

S:O’Neill – Music of Ireland (1395)

Z:AK/Fiddler’s Companion

K:A

cd | ecAB c3d | edce dBGB | AGAB cBcd | efge afgf | ecAB c3B | edce dBGB |

AGAf gfgf | edcB A2 || cd | eaag efge | dBge dBGB | AGAB cBcd | e^def gfed |

Eaag efge | dBge dBGB | ABcd efge | dBGB A2 ||

                       

ROBIN SHURE/SHORE IN HARIST/HERST. AKA and see "Bob Shear Harvest." Scottish, 'Old' Hornpipe. John Glen (1891) finds the earliest appearance of the tune in Robert Bremner's 1768 2nd collection (pg. 103). The melody is in triple-time 'old hornpipe' rhythm and is given by Emmerson (1972) as an example of a Northumbrian/Borders tune of this kind..

                       

ROBIN SPRAGGON'S AULD GREY MARE. English, Air (6/8 time). England, Northumberland. C Major. Standard tuning. AB. "In these days of newspapers, railways, and cheap trips, we can scarcely conceive of the pleasure which fairs, harvest homes, and ploughing matches afforded the rural population of other times. To these meetings persons of all degrees came. Class mingled with class, and friendly sympathies were awakened. And when in addition to the strains of the small pipes and the fiddle, some rustic muse was enabled to produce a ballad bearing upon the events of the day, exposing the foibles of some of the personages of the district, the merriment of the gathered crowds was greatly increased. Of this kind is the ballad respecting 'Robin Spraggon's Auld Grey Mare'. Felton, in Northumberland, is the district to which it refers, and it was probably composed about a century ago. The ballad takes the form of the last will and testament of an old mare that seems to have been badly used in its latter days. We are indebted for this ballad to the late Mr. Fairless, of Hexham, who wrote it down, we believe, from memory..." (Bruce & Stokoe).

***

The miller of Ogle bred me, as I have heard them say,

And gallantly he fed me with the best of corn and hay;

For meal and malt I wanted not when in his custody,

But now I'm Robin Sproggon's auld grey mare, aw how he's guided me! (Bruce & Stokoe)

***

Bruce & Stokoe (Northumbrian Minstrelsy), 1882; pgs. 134‑136.

